picto/escalator-up-right.svg

<svg class="color-immutable" width="24" height="24" viewBox="0 0 24 24" fill="none" xmlns="http://www.w3.org/2000/svg"><path d="M0 22.5V1.5C0 0.675 0.675 0 1.5 0H22.5C23.325 0 24 0.675 24 1.5V22.5C24 23.325 23.325 24 22.5 24H1.5C0.675 24 0 23.325 0 22.5Z" fill="#2D327D"/><path d="M8.62402 14.787V12.297C8.62402 11.655 9.14502 11.134 9.78602 11.134C9.96102 11.134 10.134 11.174 10.292 11.25L12.435 12.286L11.302 13.03L9.85002 12.328L9.70302 12.632L10.973 13.246L8.62402 14.787Z" fill="white"/><path d="M12.749 12.08V9.59C12.749 8.948 13.27 8.428 13.912 8.428C14.087 8.428 14.26 8.468 14.418 8.544L16.561 9.58L15.428 10.324L13.976 9.622L13.829 9.926L15.099 10.54L12.749 12.08Z" fill="white"/><path d="M5.62402 21C4.17502 21 2.99902 19.824 2.99902 18.375C2.99902 16.926 4.17502 15.75 5.62402 15.75H8.18802C8.40702 15.75 8.62202 15.686 8.80502 15.566L20.999 7.564V13.126L8.99902 21H5.62402Z" fill="white"/><path d="M16.874 9.373V6.883C16.874 6.241 17.395 5.721 18.037 5.721C18.212 5.721 18.385 5.761 18.543 5.837L20.686 6.873L19.553 7.617L18.101 6.915L17.954 7.219L19.224 7.833L16.874 9.373Z" fill="white"/><path d="M17.058 4.488C17.058 3.95 17.495 3.513 18.033 3.513C18.571 3.513 19.008 3.95 19.008 4.488C19.008 5.026 18.571 5.463 18.033 5.463C17.494 5.463 17.058 5.027 17.058 4.488Z" fill="white"/><path d="M12.933 7.158C12.933 6.62 13.37 6.183 13.908 6.183C14.446 6.183 14.883 6.62 14.883 7.158C14.883 7.696 14.446 8.133 13.908 8.133C13.37 8.133 12.933 7.696 12.933 7.158Z" fill="white"/><path d="M8.80804 9.828C8.80804 9.29 9.24504 8.853 9.78304 8.853C10.321 8.853 10.758 9.29 10.758 9.828C10.758 10.366 10.321 10.803 9.78304 10.803C9.24504 10.803 8.80804 10.366 8.80804 9.828Z" fill="white"/></svg>

<svg class="color-immutable" width="24" height="24" viewBox="0 0 24 24" fill="none" xmlns="http://www.w3.org/2000/svg"><g clip-path="url(#a)"><path d="M0 22.5v-21C0 .675.675 0 1.5 0h21c.825 0 1.5.675 1.5 1.5v21c0 .825-.675 1.5-1.5 1.5h-21C.675 24 0 23.325 0 22.5Z" fill="#2D327D"/><path d="M8.624 14.787v-2.49a1.163 1.163 0 0 1 1.668-1.047l2.143 1.036-1.133.744-1.452-.702-.147.304 1.27.614-2.349 1.541ZM12.749 12.08V9.59a1.163 1.163 0 0 1 1.669-1.046l2.143 1.036-1.133.744-1.452-.702-.147.304 1.27.614-2.35 1.54Z" fill="#fff"/><path d="M5.624 21a2.626 2.626 0 0 1 0-5.25h2.564c.219 0 .434-.064.617-.184l12.194-8.002v5.562L8.999 21H5.624ZM16.874 9.373v-2.49a1.163 1.163 0 0 1 1.669-1.046l2.143 1.036-1.133.744-1.452-.702-.147.304 1.27.614-2.35 1.54ZM17.058 4.488a.976.976 0 1 1 1.951.001.976.976 0 0 1-1.951-.001ZM12.933 7.158a.976.976 0 1 1 1.951.001.976.976 0 0 1-1.951-.001ZM8.808 9.828a.976.976 0 1 1 1.951.001.976.976 0 0 1-1.951-.001Z" fill="#fff"/></g><defs><clipPath id="a"><path fill="#fff" d="M0 0h24v24H0z"/></clipPath></defs></svg>
